!!!!SEGMENT: pl-wnifc--3119-n--012_szymanowska-maria--duoze-exercices-no-13-cantabile.krn
!!!cenid: 18xx:3844
!!!COM: Szymanowska, Maria
!!!COM-rismID: pe140138
!!!CDT: 1789/12/14-1831/07/25
!!!CNT: Polish
!!!GTL: Duoze Exercices
!!!OTL: No. 13. Cantabile
!!!PDT: 1825
!!!AGN:
!!!SMS-siglum: PL-Wnifc
!!!SMS-shelfmark: 3119/n
!!!SMS-shelfwork: 012 G
!!!SMS-variant:
!!!SMS-altvar:
!!!NIFC-rismSourceID: 1001142147
!!!NIFC-rismChildID: 1001142160
!!!NIFC-islandoraID: nifc:212170
!!!URL-pdf-islandora: https://repozytorium.nifc.pl/islandora/object/nifc%3A212170/datastream/PDF/view
!!!URL-scan: https://polish.musicsources.pl/pl/lokalizacje/galeria/druki-muzyczne/16830 @EN{Scan on Polish Music Sources Website} @PL{Skany w portalu Dziedzictwo Muzyki Polskiej w otwartym dostępie}
!!!ONB-nifc: UWAGA: w źródle błędnie numer 13 zamiast 12
!!!AIN: 2 piano
!!!key: F
**kern	**kern	**dynam
*part2	*part1	*part1
*staff2	*staff1	*
*I"Piano	*I"Piano	*
*Ipiano	*Ipiano	*
*ICklav	*ICklav	*
*clefF4	*clefG2	*
*k[b-]	*k[b-]	*
*F:	*F:	*
*M6/8	*M6/8	*
=1	=1	=1
!	!LO:TX:a:i:t=Cantabile	!
8.FF\L 8.F	8.f\L 8.ff	.
16GG\L 16G	16g\L 16gg	.
16AA\ 16A	16a\ 16aa	.
16BB-\JJ 16B-	16b-\JJ 16bb-	.
!	!LO:TX:a:i:t=Seque \ncon	!
16C\LL 16c	16cc\LL	.
16D\ 16d	16dd\	.
*	*8va	*
16E\ 16e	16eee\	.
16F\ 16f	16fff\	.
16G\ 16g	16ggg\	.
16A\JJ 16a	16aaa\JJ	.
=2	=2	=2
8B-\ 8b-	16bbb-\LL	.
.	16cccc\	.
[4BB-^\ [4B-	16dddd\	.
.	16aaa\	.
.	16bbb-\	.
.	16fff#X\JJ	.
8.BB-\L] 8.B-]	16ggg\LL	<
.	16ccc#X\	.
.	16ddd\	.
16GG\L 16G	16bbb-\	.
16AA\ 16A	16aaa\	.
16BB-\JJ 16B-	16ggg\JJ	[[
=3	=3	=3
8C\L 8c	8fffn\L	p
8C\ 8c	8eee\	.
8C\J 8A 8c	8fff\J	.
8C\L 8B- 8c	8ggg\L	.
8C\ 8B- 8c	8aaa\	.
8C\J 8B- 8c	8ggg\J	.
=4	=4	=4
*tremolo	*	*
8F\L 8A 8c 8f	4fff\	.
8F\ 8A 8c 8f	.	.
8F\ 8A 8c 8f	8r	.
8F\ 8A 8c 8f	16bbb-\LL	.
.	16aaa\	.
8F\ 8A 8c 8f	16ggg\	.
.	16fff\	.
8F\J 8A 8c 8f	16eee\	.
.	16ddd\JJ	.
=5	=5	=5
8F\L 8B- 8c 8e	8ddd\L	.
8F\ 8B- 8c 8e	8ccc\	.
8F\ 8B- 8c 8e	8ccc\J	.
8F\ 8B- 8c 8e	8ccc\L	.
8F\ 8B- 8c 8e	8ddd\	.
8F\J 8B- 8c 8e	8ccc\J	.
=6	=6	=6
8F\L 8A 8c 8f	4ccc\	.
8F\ 8A 8c 8f	.	.
8F\ 8A 8c 8f	8r	.
8F\ 8A 8c 8f	16bbb-\LL	sf
.	16aaa\	.
8F\ 8A 8c 8f	16ggg\	.
.	16fff\	.
8F\J 8A 8c 8f	16eee\	.
.	16ddd\JJ	.
!!LO:LB:g=original
=7	=7	=7
8F\L 8B- 8c 8e	8ddd\L	.
8F\ 8B- 8c 8e	8ccc\	.
8F\ 8B- 8c 8e	8ccc\J	.
8F\ 8B- 8c 8e	8ccc\L	.
8F\ 8B- 8c 8e	8ddd\	.
8F\J 8B- 8c 8e	8ccc\J	.
=8	=8	=8
8F\L 8A 8c 8f	4ccc\	.
8F\ 8A 8c 8f	.	.
8F\J 8A 8c 8f	8r	.
4F\ 4A 4c 4f	16bbb-\LL	sf
.	16aaa\	.
.	16ggg\	.
.	16fff\	.
8r	16eee\	.
.	16ddd\JJ	.
=9	=9	=9
8AA/	8ddd\L	.
*Xtremolo	*	*
8A\L 8e 8g	8ccc#X\	.
8A\J 8e 8g	8ccc#\J	.
*tremolo	*	*
8A\L 8e 8g	8aa\L	<
8A\ 8e 8g	8bbn\	.
8A\J 8e 8g	8ccc#\J	.
=10	=10	=10
*Xtremolo	*	*
8D\	8.ddd\L	.
8A\L 8d 8f	.	.
.	16eee\L	.
8A\J 8d 8f	16fff\	.
.	16ggg\JJ	.
8FF/	16aaa\LL	.
.	16bbbn\	.
8F\L 8A 8d	16cccc\	.
.	16aaa\	.
8F\J 8A 8d	16fff\	.
.	16ddd\JJ	[[
=11	=11	=11
8GG/	8ccc\L	.
8G\L 8c 8e	16fff\L	.
.	16eee\	.
8G\J 8c 8e	16ddd\	.
.	16ccc\JJ	.
8GG/	16bbn/LL	.
.	16aa/	.
8G\L 8Bn 8d	16gg/	.
.	16ff/	.
8G\J 8B 8d	16ee/	.
.	16dd/JJ	.
=12	=12	=12
8.CC/L 8.C	8.cc/L	f
16DD/L 16D	16dd/L	.
16EE/ 16E	16ee/	.
16FF/JJ 16F	16ff/JJ	.
16GG\LL 16G	16gg/LL	.
16AA\ 16A	16aa/	.
16BBn\ 16Bn	16bbn/	.
16C\ 16c	16ccc/	.
16D\ 16d	16ddd/	.
16E\JJ 16e	16eee/JJ	.
=13	=13	=13
8F\ 8f	16fff\LL	.
.	16ggg\	.
[4FF^>/ [4F	16aaa\	.
.	16eee\	.
.	16fff\	.
.	16ccc#X\JJ	.
(8.FF/L] 8.F]	16ddd\LL	.
.	16gg#X\	<
.	16aa\	.
16DD/L) 16D	16fff\	.
16EE/ 16E	16eee\	.
16FF/JJ 16F	16ddd\JJ	[[
!!LO:LB:g=original
=14	=14	=14
8GG/L 8G	8ccc\L	.
8GG/ 8G	8bbn\	.
8GG/J 8E 8G	8ccc\J	.
*tremolo	*	*
8GG/L 8F 8G	8ddd\L	.
8GG/ 8F 8G	8eee\	.
8GG/J 8F 8G	8ddd\J	.
=15	=15	=15
8C\ 8E 8G	4ccc\	.
*Xtremolo	*	*
8C\L 8G 8e	.	.
8C\J 8G 8e	8r	.
*tremolo	*	*
8C\L 8G 8e	16fff\LL	sf
.	16eee\	.
8C\ 8G 8e	16ddd\	.
.	16ccc\	.
8C\J 8G 8e	16bbn\	.
.	16aa\JJ	.
=16	=16	=16
8C\L 8E 8G 8Bn	8aa/L	.
8C\ 8E 8G 8B	8gg/	.
8C\ 8E 8G 8B	8ff/J	.
8C\ 8E 8G 8B	8gg/L	.
8C\ 8E 8G 8B	8aa/	.
8C\J 8E 8G 8B	8gg/J	.
=17	=17	=17
8C\L 8E 8G 8c	4gg/	.
8C\ 8E 8G 8c	.	.
8C\ 8E 8G 8c	8r	.
8C\ 8E 8G 8c	16fff\LL	sf
.	16eee\	.
8C\ 8E 8G 8c	16ddd\	.
.	16ccc\	.
8C\J 8E 8G 8c	16bbn\	.
.	16aa\JJ	.
=18	=18	=18
8C\L 8F 8G 8Bn	8aa/L	.
8C\ 8F 8G 8B	8gg/	.
8C\ 8F 8G 8B	8gg/J	.
8C\ 8F 8G 8B	8gg/L	.
8C\ 8F 8G 8B	8aa-X/	>
8C\J 8F 8G 8B	8gg/J	]
=19	=19	=19
*Xtremolo	*	*
8C\L 8E-X 8G 8c	4gg/	.
8C\ 8E- 8G 8c	.	.
8C\J 8E- 8G 8c	8r	.
*tremolo	*	*
!	!LO:TX:b:i:t=espres	!
8E-\L 8G 8c	16aaa-X\LL	.
.	16ggg\	.
8E-\ 8G 8c	16fff\	.
.	16eee-X\	.
8E-\J 8G 8c	16ddd\	.
.	16ccc\JJ	.
=20	=20	=20
8F\L 8A-X 8c 8d	4eee-X\	.
8F\ 8A- 8c 8d	.	.
8F\ 8A- 8c 8d	8ddd\	.
8F\ 8A- 8c 8d	8fff\L	.
8F\ 8A- 8c 8d	8ggg\	.
8F\J 8A- 8c 8d	8aaa-X\J	.
=21	=21	=21
8G\L 8c 8e-X	4ggg\	.
8G\ 8c 8e-	.	.
8G\J 8c 8e-	8eee-X\	.
8G\L 8Bn 8f	8ddd\L	.
8G\ 8B 8f	8eee-\	.
8G\J 8B 8f	8ddd\J	.
=22	=22	=22
8c\ 8e-X	4ccc\	.
*Xtremolo	*	*
8C\L 8G 8e-	.	.
8C\J 8G 8e-	8r	.
*tremolo	*	*
8C\L 8G 8e-	16aaa-X\LL	f
.	16ggg\	.
8C\ 8G 8e-	16fff#X\	.
.	16ggg\	.
8C\J 8G 8e-	16eee-X\	.
.	16ccc\JJ	.
!!LO:LB:g=original
=23	=23	=23
8C\L 8G 8e-X	4.gg/	.
8C\ 8G 8e-	.	.
8C\J 8G 8e-	.	.
8C\L 8E-X 8G 8c	8gg/L	p
8C\ 8E- 8G 8c	8aa-X/	>
8C\J 8E- 8G 8c	8gg/J	]
=24	=24	=24
8D\L 8F 8G 8Bn	4.gg/	.
8D\ 8F 8G 8B	.	.
8D\J 8F 8G 8B	.	.
8D\L 8B 8f	16aaa-X\LL	f
.	16ggg\	.
8D\ 8B 8f	16fff#X\	.
.	16ggg\	.
8D\J 8B 8f	16ddd\	.
.	16bbn\JJ	.
=25	=25	=25
8D\L 8Bn 8f	4.gg/	.
8D\ 8B 8f	.	.
8D\J 8B 8f	.	.
8BBn\L 8G 8d	8gg/L	.
8BB\ 8G 8d	8aa-X/	>
8BB\J 8G 8d	8gg/J	]
=26	=26	=26
8C\L 8E-X 8G 8c	4.gg/	.
8C\ 8E- 8G 8c	.	.
8C\J 8E- 8G 8c	.	.
*Xtremolo	*	*
8E-\L 8G 8c	16aaa-X\LL	.
.	16ggg\	.
8E-\ 8G 8c	16fff#X\	.
.	16ggg\	.
8E-\J 8G 8c	16fffn\	.
.	16eee-X\JJ	.
*tremolo	*	*
=27	=27	=27
8E-X\L 8G 8c	4ddd\	.
8E-\ 8G 8c	.	.
8E-\ 8G 8c	8ccc\	.
8E-\ 8G 8c	8ccc\L	.
8E-\ 8G 8c	8ddd\	.
8E-\J 8G 8c	8eee-X\J	.
=28	=28	=28
8F\L 8A-X 8c 8d	4eee-X\	.
8F\ 8A- 8c 8d	.	.
8F\ 8A- 8c 8d	8ddd\	.
8F\ 8A- 8c 8d	16bbb-\LL	.
.	16aaa\	.
8F\ 8A- 8c 8d	16aaa-X\	.
.	16ggg\	.
8F\J 8A- 8c 8d	16ggg-X\	.
.	16fff\JJ	.
=29	=29	=29
8G\L 8B- 8d-X 8en	4.eeen\	.
8G\ 8B- 8d- 8e	.	.
8G\ 8B- 8d- 8e	.	.
8G\ 8B- 8d- 8e	8eee\L	.
8G\ 8B- 8d- 8e	8fff\	.
8G\J 8B- 8d- 8e	8ggg\J	.
=30	=30	=30
8A-X\L 8c 8f	4ggg\	.
8A-\ 8c 8f	.	.
8A-\ 8c 8f	8fff\	.
8A-\ 8c 8f	16dddd-X\LL	.
.	16cccc\	.
8A-\ 8c 8f	16bbbn\	.
.	16cccc\	.
8A-\J 8c 8f	16aaa-X\	.
.	16ggg\JJ	.
!!LO:LB:g=original
=31	=31	=31
8A-X\ 8c 8f	2.ff/	.
(8AA-X`\L 8A-	.	.
8AAn`\ 8An	.	.
8BB-`\ 8B-	.	.
8BBn`\ 8Bn	.	.
8C`\J) 8c	.	.
*	*X8va	*
=32	=32	=32
!	!LO:TX:a:t=loco	!
8D-X\L 8d-X	(8f`/L	<
8D-\ 8d-	8f`/ 8g	.
8D-\ 8d-	8f`/J 8a-X	.
8D-\ 8d-	8f`/L 8an	.
8D-\ 8d-	8f`/ 8b-	.
8D-\J 8d-	8f`/J) 8bn	[[
=33	=33	=33
8C\ 8c	4.en/ 4.cc	.
*Xtremolo	*	*
8C\L 8E 8G	.	.
8C\J 8E 8G	.	.
*tremolo	*	*
8C\L 8E 8G	16dd-X^<\LL 16ddd-X	.
*	*8va	*
.	16ccc\	.
8C\ 8E 8G	16bbn\	.
.	16ccc\	.
8C\J 8E 8G	16gg\	.
.	16ee\JJ	.
=34	=34	=34
8C\L 8F 8A-X	4.cc/	.
8C\ 8F 8A-	.	.
8C\ 8F 8A-	.	.
8C\ 8F 8A-	16ddd-X^\LL	.
.	16ccc\	.
8C\ 8F 8A-	16bbn\	.
.	16ccc\	.
8C\J 8F 8A-	16aa-X\	.
.	16ff\JJ	.
=35	=35	=35
8C\ 8E 8G	4.cc/	.
(8DD-X^/L 8D-X	.	.
8CC/J) 8C	.	.
*Xtremolo	*	*
8CC/L 8C	16ddd-X\LL	.
.	16ccc\	.
8CC/ 8C	16bbn\	.
.	16ccc\	.
8CC/J 8C	16gg\	.
.	16ee\JJ	.
=36	=36	=36
8CC/L 8C	4.cc/	.
(8DD-X^/ 8D-X	.	.
8CC/J) 8C	.	.
8CC/L 8C	16ddd-X\LL	.
.	16ccc\	.
8CC/ 8C	16bbn\	.
.	16ccc\	.
8CC/J 8C	16aa-X\	.
.	16ff\JJ	.
=37	=37	=37
2.CC/ 2.C	8.cc/L	.
.	16cc#X/L	.
.	16dd/	.
.	16dd#X/JJ	.
.	16ee/LL	.
.	16ff/	.
.	16ff#X/	.
.	16gg/	.
.	16gg#X/	.
.	16aa/JJ	.
!!LO:PB:g=original
=38	=38	=38
[8CC/L [8C	16bb-\LL	<
.	16bbn\	.
16CC/L] 16C]	16ccc\	.
16CC#X/ 16C#X	16ccc#X\	.
16DD/ 16D	16ddd\	.
16DD#X/JJ 16D#X	16ddd#X\JJ	.
16EE/LL 16E	16eee\LL	.
16FF/ 16F	16fff\	.
16FF#X/ 16F#X	16fff#X\	.
16GG/ 16G	16ggg\	.
16GG#X/ 16G#X	16ggg#X\	.
16AA/JJ 16A	16aaa\JJ	[[
=39	=39	=39
8BB-\ 8B-	16bbb-\LL	.
.	16cccc\	.
[4BB-^\ [4B-	16dddd\	.
.	16aaa\	.
.	16bbb-\	.
.	16fff#X\JJ	.
8.BB-\L] 8.B-]	16gggn\LL	.
.	16ccc#X\	.
.	16dddn\	.
16GGn\L 16Gn	16bbb-\	.
16AA\ 16A	16aaa\	.
16BB-\JJ 16B-	16ggg\JJ	.
=40	=40	=40
8C\L 8c	8fffn\L	.
8C\ 8c	8eee\	.
8C\J 8c	8fff\J	.
8C\L 8B- 8c	8ggg\L	.
8C\ 8B- 8c	8aaa\	.
8C\J 8B- 8c	8ggg\J	.
=41	=41	=41
*tremolo	*	*
8F\L 8A 8c 8f	4fff\	.
8F\ 8A 8c 8f	.	.
8F\ 8A 8c 8f	8r	.
8F\ 8A 8c 8f	16bbb-\LL	.
.	16aaa\	.
8F\ 8A 8c 8f	16ggg\	.
.	16fff\	.
8F\J 8A 8c 8f	16eee\	.
.	16ddd\JJ	.
=42	=42	=42
8F\L 8B- 8c 8e	8ddd\L	.
8F\ 8B- 8c 8e	8ccc\	.
8F\ 8B- 8c 8e	8ccc\J	.
8F\ 8B- 8c 8e	8ccc\L	.
8F\ 8B- 8c 8e	8ddd\	.
8F\J 8B- 8c 8e	8ccc\J	.
=43	=43	=43
8F\L 8A 8c 8f	4ccc\	.
8F\ 8A 8c 8f	.	.
8F\ 8A 8c 8f	8r	.
8F\ 8A 8c 8f	16bbb-\LL	.
.	16aaa\	.
8F\ 8A 8c 8f	16ggg\	.
.	16fff\	.
8F\J 8A 8c 8f	16eee\	.
.	16ddd\JJ	.
=44	=44	=44
8F\L 8B- 8c 8e	8ddd\L	.
8F\ 8B- 8c 8e	8ccc\	.
8F\ 8B- 8c 8e	8ccc\J	.
8F\ 8B- 8c 8e	8ccc\L	.
8F\ 8B- 8c 8e	8ddd\	.
8F\J 8B- 8c 8e	8ccc\J	.
=45	=45	=45
8F\L 8A 8c 8f	4.ccc\	.
8F\ 8A 8c 8f	.	.
8F\J 8A 8c 8f	.	.
8F\L 8c 8e-X	8ff/L	<
8F\ 8c 8e-	8gg/	.
8F\J 8c 8e-	8aa/J	.
=46	=46	=46
8F\L 8B- 8d	8bb-/L	.
8F\ 8B- 8d	8aa/	.
8F\J 8B- 8d	8bb-/J	.
8F\L 8G 8c 8en	8ddd\L	.
8F\ 8G 8c 8e	8ccc\	.
8F\J 8G 8c 8e	8bb-\J	[[
!!LO:LB:g=original
=47	=47	=47
8F\L 8A 8c 8f	4aa/	.
8F\ 8A 8c 8f	.	.
8F\J 8A 8c 8f	8r	.
8F\L 8c 8e-X	8ff/L	.
8F\ 8c 8e-	8gg/	.
8F\J 8c 8e-	8aa/J	.
=48	=48	=48
8F\L 8B- 8d	8bb-/L	.
8F\ 8B- 8d	8aa/	.
8F\J 8B- 8d	8bb-/J	.
8F\L 8G 8B- 8c 8en	8ccc\L	.
8F\ 8G 8B- 8c 8e	8ddd\	.
8F\J 8G 8B- 8c 8e	8eee\J	.
=49	=49	=49
8F\L 8A 8c 8f	4.fff\	.
8F\ 8A 8c 8f	.	.
8F\J 8A 8c 8f	.	.
8E-X\L 8A 8c 8f	4ggg\	.
8E-\ 8A 8c 8f	.	.
8E-\J 8A 8c 8f	8fff\	.
=50	=50	=50
8D\L 8F 8B- 8f	4ggg\	.
8D\ 8F 8B- 8f	.	.
8D\J 8F 8B- 8f	8fff\	.
8C\L 8F 8A 8e-X	8eeee-X\L	.
8C\ 8F 8A 8e-	8dddd\	.
8C\J 8F 8A 8e-	8cccc\J	.
=51	=51	=51
8BB-\L 8F 8B- 8d	4dddd\	.
8BB-\ 8F 8B- 8d	.	.
8BB-\J 8F 8B- 8d	8bbb-\	.
8E-X\L 8G 8B- 8c	8.cccc^<\L	.
8E-\ 8G 8B- 8c	.	.
.	16bbb-\L	.
8E-\J 8G 8B- 8c	16aaa\	.
.	16ggg\JJ	.
=52	=52	=52
8F\L 8B- 8d	4ggg\	.
8F\ 8B- 8d	.	.
8F\J 8B- 8d	8fff\	.
8F\L 8A 8c 8e-X	8.ggg^<\L	.
8F\ 8A 8c 8e-	.	.
.	16fff\L	.
8F\J 8A 8c 8e-	16eee-X\	.
.	16ccc\JJ	.
=53	=53	=53
8B-\ 8d	8bb-\	f
16BBB-/LL 16BB-	16b-/LL	.
16CC/ 16C	16cc/	.
16DD/ 16D	16dd/	.
16EE-X/JJ 16E-X	16ee-X/JJ	.
16FF\LL 16F	16ff/LL	.
16GG\ 16G	16gg/	.
16AA\ 16A	16aa/	.
16BB-\ 16B-	16bb-/	.
16C\ 16c	16ccc/	.
16D\JJ 16d	16ddd/JJ	.
=54	=54	=54
8E-X\ 8e-X	16eee-X\LL	.
.	16fff\	.
[4EE-X^>/ [4E-	16ggg\	.
.	16ddd\	.
.	16eee-\	.
.	16bbn\JJ	.
8.EE-/L] 8.E-]	16ccc\LL	<
.	16ff#X\	.
.	16gg\	.
16CC`/L 16C	16eee-\	.
16DD`/ 16D	16ddd\	.
16EE-`/JJ 16E-	16ccc\JJ	[[
=55	=55	=55
*Xtremolo	*	*
8FF/L 8F	8bb-/L	.
8FF/ 8F	8aa/	.
8FF/J 8D 8F	8bb-/J	.
*tremolo	*	*
8FF/L 8E-X 8F	8ccc\L	.
8FF/ 8E- 8F	8ddd\	.
8FF/J 8E- 8F	8ccc\J	.
!!LO:LB:g=original
=56	=56	=56
8BB-\ 8D 8F	4bb-\	.
*Xtremolo	*	*
8BB-\L 8D 8F 8B-	.	.
8BB-\J 8D 8F 8B-	8r	.
*tremolo	*	*
8BB-\L 8D 8F 8B-	16eee-X\LL	sf
.	16ddd\	.
8BB-\ 8D 8F 8B-	16ccc\	.
.	16bb-\	.
8BB-\J 8D 8F 8B-	16aa\	.
.	16gg\JJ	.
=57	=57	=57
8BB-\L 8E-X 8F 8A	8gg/L	.
8BB-\ 8E- 8F 8A	8ff/	.
8BB-\ 8E- 8F 8A	8ff/J	.
8BB-\ 8E- 8F 8A	8ff/L	.
8BB-\ 8E- 8F 8A	8gg/	.
8BB-\J 8E- 8F 8A	8ff/J	.
=58	=58	=58
8BB-\L 8D 8F 8B-	4ff/	.
8BB-\ 8D 8F 8B-	.	.
8BB-\ 8D 8F 8B-	8r	.
8BB-\ 8D 8F 8B-	16eee-X\LL	sf
.	16ddd\	.
8BB-\ 8D 8F 8B-	16ccc\	.
.	16bb-\	.
8BB-\J 8D 8F 8B-	16aa\	.
.	16gg\JJ	.
=59	=59	=59
8BB-\L 8E-X 8F 8A	8gg/L	.
8BB-\ 8E- 8F 8A	8ff/	.
8BB-\ 8E- 8F 8A	8ff/J	.
8BB-\ 8E- 8F 8A	8ff/L	.
8BB-\ 8E- 8F 8A	8gg/	.
8BB-\J 8E- 8F 8A	8ff/J	.
=60	=60	=60
8BB-\L 8D 8F 8B-	4ff/	.
8BB-\ 8D 8F 8B-	.	.
8BB-\J 8D 8F 8B-	8r	.
4BB-\ 4D 4F 4B-	16eee-X\LL	sf
.	16ddd\	.
.	16ccc\	.
.	16bb-\	.
8r	16aa\	.
.	16gg\JJ	.
=61	=61	=61
8DD/	8gg/L	sf
*Xtremolo	*	*
8D\L 8A 8c	8ff#X/	.
8D\J 8A 8c	8ff#/J	.
*tremolo	*	*
8D\L 8A 8c	8dd/L	.
8D\ 8A 8c	8een/	.
8D\J 8A 8c	8ff#X/J	.
=62	=62	=62
8GG/	8.gg/L	.
*Xtremolo	*	*
8G\L 8B- 8d	.	.
.	16aa/L	.
8G\J 8B- 8d	16bb-/	.
.	16ccc/JJ	.
8BB-/	16ddd\LL	.
.	16eeen\	.
8G\L 8B- 8d	16fff#X\	.
.	16ggg\	.
8G\J 8B- 8d	16aaa\	.
.	16ggg\JJ	.
=63	=63	=63
*tremolo	*	*
8C\L 8A 8c	8fffn\L	.
8C\ 8A 8c	8eee\	.
8C\J 8A 8c	8fff\J	.
8C\L 8B- 8c	8ggg\L	.
8C\ 8B- 8c	8aaa\	.
8C\J 8B- 8c	8ggg\J	.
=64	=64	=64
8F\L 8A 8c	4fff\	.
8F\ 8A 8c	.	.
8F\J 8A 8c	8r	.
8F\L 8c 8e-X	8ff/L	p
8F\ 8c 8e-	8gg/	.
8F\J 8c 8e-	8aa/J	.
!!LO:LB:g=original
=65	=65	=65
8F\L 8B- 8d	8bb-/L	.
8F\ 8B- 8d	8aa/	.
8F\J 8B- 8d	8bb-/J	.
8F\L 8G 8B- 8c 8en	8ddd\L	.
8F\ 8G 8B- 8c 8e	8ccc\	.
8F\J 8G 8B- 8c 8e	8bb-\J	.
=66	=66	=66
8F\L 8A 8c 8f	4.aa/	.
8F\ 8A 8c 8f	.	.
8F\J 8A 8c 8f	.	.
8F\L 8c 8e-X	8ff/L	.
8F\ 8c 8e-	8gg/	.
8F\J 8c 8e-	8aa/J	.
=67	=67	=67
8F\L 8B- 8d	8bb-/L	.
8F\ 8B- 8d	8aa/	.
8F\J 8B- 8d	8bb-/J	.
8F\L 8B- 8c 8en	8ccc\L	.
8F\ 8B- 8c 8e	8ddd\	.
8F\J 8B- 8c 8e	8ccc\J	.
=68	=68	=68
*Xtremolo	*	*
8F\L 8A 8c 8f	[4.ccc\	.
8F\ 8A 8c 8f	.	.
8F\J 8A 8c 8e-X	.	.
*tremolo	*	*
8F#X\L 8A 8c 8d	8ccc\L]	.
8F#\ 8A 8c 8d	8ddd\	.
8F#\J 8A 8c 8d	[8ccc\J	.
=69	=69	=69
8G\L 8c 8d	8ccc\L]	.
8G\ 8c 8d	8ddd\	.
8G\J 8c 8d	8ccc\J	.
8G\L 8Bn 8d	8bbn\L	.
8G\ 8B 8d	8ggg\	.
8G\J 8B 8d	8ggg\J	.
=70	=70	=70
8c\L 8en	8ggg^<\L	.
8c\ 8e	8ccc\	.
8c\J 8e	8bb-X\J	.
8F\L 8c 8e-X	8aa\L	.
8F\ 8c 8e-	8fff\	.
8F\J 8c 8e-	8fff\J	.
=71	=71	=71
8B-\L 8d	8fff^<\L	.
8B-\ 8d	8bb-\	.
8B-\J 8d	8aa\J	.
8B-\L 8c 8en	8gg\L	.
8B-\ 8c 8e	8ddd^\	.
8B-\J 8c 8e	8ccc\J	.
=72	=72	=72
8A\L 8c 8f	8aa\L	.
8A\ 8c 8f	8ddd^\	.
8A\J 8c 8f	8ccc\J	.
8C#X\L 8G 8B- 8e	8bbb-^<\L	.
8C#\ 8G 8B- 8e	8aaa\	.
8C#\J 8G 8B- 8e	8ggg\J	.
=73	=73	=73
8D\L 8F 8A 8d	8.fff^\L	.
8D\ 8F 8A 8d	.	.
.	16fff\L	.
8D\J 8F 8A 8d	16eee\	.
.	16fff\JJ	.
8BBn\L 8F 8G 8d	8.ggg^\L	.
8BB\ 8F 8G 8d	.	.
.	16fff\L	.
8BB\J 8F 8G 8d	16eee\	.
.	16ddd\JJ	.
!!LO:LB:g=original
=74	=74	=74
8C\L 8F 8A 8c	4ddd\	.
8C\ 8F 8A 8c	.	.
8C\J 8F 8A 8c	8ccc\	.
8C\L 8B- 8c	8.ddd^\L	.
8C\ 8B- 8c	.	.
.	16ccc\L	.
8C\J 8B- 8c	16bb-\	.
.	16gg\JJ	.
=75	=75	=75
8F\L 8A 8c	4ff/	.
8F\ 8A 8c	.	.
8F\J 8A 8c	8r	.
8F\L 8B- 8d-X 8e	16ee\LL	.
.	16gg\	.
8F\ 8B- 8d- 8e	16bb-\	.
.	16ddd-X\	.
8F\J 8B- 8d- 8e	16eee\	.
.	16bbb-\JJ	.
=76	=76	=76
8F\L 8A 8c 8f	4aaa\	.
8F\ 8A 8c 8f	.	.
8F\J 8A 8c 8f	8r	.
8F\L 8B- 8d-X 8e	8ggg\L	p
8F\ 8B- 8d- 8e	8aaa\	.
8F\J 8B- 8d- 8e	8ggg\J	.
=77	=77	=77
8F\L 8A 8c 8f	4cccc\	.
8F\ 8A 8c 8f	.	.
8F\J 8A 8c 8f	8r	.
8F\L 8B- 8d-X 8e	16gg\LL	.
.	16bb-\	.
8F\ 8B- 8d- 8e	16ddd-X\	rf
.	16eee\	.
8F\J 8B- 8d- 8e	16ggg\	.
.	16dddd-X\JJ	.
=78	=78	=78
8F\L 8A 8c 8f	4cccc\	.
8F\ 8A 8c 8f	.	.
8F\J 8A 8c 8f	8r	.
8F\L 8B- 8c 8e	8ggg\L	.
8F\ 8B- 8c 8e	8aaa\	.
8F\J 8B- 8c 8e	8ggg\J	.
=79	=79	=79
16F\LL 16f	16fff\LL	ff
16E\ 16e	16eee\	.
16D\ 16d	16ddd\	.
16C\ 16c	16ccc\	.
16BB-\ 16B-	16bb-\	.
16AA\JJ 16A	16aa\JJ	.
16GG/LL 16G	16gg/LL	.
16FF/ 16F	16ff/	.
16EE/ 16E	16ee/	.
16DD/ 16D	16dd/	.
16CC/ 16C	16cc/	.
16BBB-/JJ 16BB-	16b-/JJ	.
=80	=80	=80
16AAA/LL 16AA	16a/LL	.
16BBB-/ 16BB-	16b-/	.
16CC/ 16C	16cc/	.
16DD/ 16D	16dd/	.
16EE/ 16E	16ee/	.
16FF/JJ 16F	16ff/JJ	.
16GG\LL 16G	16gg\LL	.
16AA\ 16A	16aa\	.
16BB-\ 16B-	16bb-\	.
16C\ 16c	16ccc\	.
16D\ 16d	16ddd\	.
16E\JJ 16e	16eee\JJ	.
=81	=81	=81
8F\ 8f	8fff\	.
*	*X8va	*
8r	8r	.
8C\L 8c	8e^>/L 8b- 8cc	p
8F\J 8A	8f/J 8a 8cc	.
8r	8r	.
8CC\ 8C	8E</ 8B-< 8c<	.
=82	=82	=82
2.FF;<\ 2.AA	2.F<;/ 2.A< 2.c<	pp
==	==	==
*-	*-	*-
!!!RDF**kern: > = above
!!!RDF**kern: < = below
!!!system-decoration: [(s1,s2)]
!!!ENC: Berenika Jozajtis
!!!END: 2022-07-18
!!!ENC: Urszula Świątek
!!!END: 2022-08-19
!!!YEC: Copyright 2022 Narodowy Instytut Fryderyka Chopina (https://polishscores.org)
!!!YEM: License CC-BY-4.0 (https://creativecommons.org/licenses/by/4.0)
